X:160
T:Miss Hutchinson's Frolick
M:C|
L:1/8
B:Thompson's Compleat Collection of 200 Favourite Country Dances, vol. 1 (London, 1757)
Z:Transcribed and edited by Flynn Titford-Mock, 2007
Z:abc's:AK/Fiddler's Companion
K:D
(3dcd (3dcd (3dAG (3FED|(3ede (3ede (3ebd (3cBA|(3dcd (3dcd (3dba (3^gfe|(3dcB (3cA^g a2 A2:|
|:d/e/f/d/ d/e/f/d/ B/c/e/B/ G2|e/f/g/e/ e/f/g/e/ c/d/e/c/ A2|f/g/a/f/ d/e/f/d/ B/c/d/B/ G>g|(3fed (3Adc d2 D2:|

